X: 4480
T: Bonnie Tammie Scolla
R: polka
M: 2/4
K: Amajor
|"A"A>B ce|"D"fe "A"c2|"E"BABc|BABc|"A"A>B ce|"D"fe "A"c2|e>c "E"Bc|"A" A2 A2:|
"A"a>g fe|"D"fe "A"c2|"E"BA Bc BA Bc|"A"a>g fe|"D" fe "A"c2|e>c "E"Bc|"A" A2 A2:|

